icons/antennapod.svg

<svg width="32" height="32" viewBox="0 0 32 32" fill="none" xmlns="http://www.w3.org/2000/svg">
<g clip-path="url(#clip0_29_73)">
<mask id="mask0_29_73" style="mask-type:alpha" maskUnits="userSpaceOnUse" x="0" y="0" width="32" height="32">
<path d="M3.36627 28.6337C0.910867 26.1783 0 22.1783 0 16C0 9.82167 0.910867 5.82167 3.36627 3.36627C5.82167 0.910867 9.82167 0 16 0C22.1783 0 26.1783 0.910867 28.6337 3.36627C31.0891 5.82167 32 9.82167 32 16C32 22.1783 31.0891 26.1783 28.6337 28.6337C26.1783 31.0891 22.1783 32 16 32C9.82167 32 5.82167 31.0891 3.36627 28.6337Z" fill="url(#paint0_linear_29_73)"/>
</mask>
<g mask="url(#mask0_29_73)">
<g clip-path="url(#clip1_29_73)">
<rect x="-8" y="-8" width="48" height="48" fill="url(#paint1_linear_29_73)"/>
<g style="mix-blend-mode:hard-light" opacity="0.1">
<rect x="-8" y="-8" width="48" height="48" fill="url(#paint2_radial_29_73)"/>
</g>
</g>
<g filter="url(#filter0_ddi_29_73)">
<path d="M22.2575 25.7163C25.4452 23.6591 27.5556 20.076 27.5556 16C27.5556 9.61806 22.382 4.44446 16 4.44446C9.61804 4.44446 4.44444 9.61806 4.44444 16C4.44444 20.076 6.55478 23.6591 9.74243 25.7163L10.3539 23.9839C7.85397 22.2127 6.22222 19.2969 6.22222 16C6.22222 10.5999 10.5999 6.22224 16 6.22224C21.4001 6.22224 25.7778 10.5999 25.7778 16C25.7778 19.297 24.146 22.2128 21.646 23.9839L22.2575 25.7163Z" fill="#BCE5FB"/>
<path d="M20.7088 21.3288C22.1822 20.0259 23.1111 18.1214 23.1111 16C23.1111 12.0727 19.9274 8.8889 16 8.8889C12.0726 8.8889 8.88889 12.0727 8.88889 16C8.88889 18.1214 9.81783 20.0259 11.2911 21.3288L11.948 19.4679C11.1492 18.5355 10.6667 17.3241 10.6667 16C10.6667 13.0545 13.0545 10.6667 16 10.6667C18.9455 10.6667 21.3333 13.0545 21.3333 16C21.3333 17.3241 20.8508 18.5355 20.052 19.468L20.7088 21.3288Z" fill="#BCE5FB"/>
</g>
<g filter="url(#filter1_ddi_29_73)">
<path fill-rule="evenodd" clip-rule="evenodd" d="M11.6002 31.8027C10.8044 31.7216 10.0579 31.614 9.35832 31.4778L14.1453 17.9161C13.6446 17.4313 13.3333 16.752 13.3333 16C13.3333 14.5273 14.5272 13.3333 16 13.3333C17.4728 13.3333 18.6667 14.5273 18.6667 16C18.6667 16.752 18.3554 17.4314 17.8546 17.9162L22.6415 31.4778C21.9419 31.6141 21.1955 31.7216 20.3996 31.8027L18.7815 27.2186C17.8906 27.4388 16.959 27.5556 16.0001 27.5556C15.041 27.5556 14.1093 27.4387 13.2183 27.2185L11.6002 31.8027ZM16.0001 25.3333C15.3002 25.3333 14.6184 25.2563 13.9625 25.1103L15.9999 19.3382L18.0374 25.1103C17.3816 25.2563 16.6998 25.3333 16.0001 25.3333Z" fill="#F5F5F5"/>
</g>
</g>
</g>
<defs>
<filter id="filter0_ddi_29_73" x="3.11111" y="4.44446" width="25.7778" height="23.9385" filterUnits="userSpaceOnUse" color-interpolation-filters="sRGB">
<feFlood flood-opacity="0" result="BackgroundImageFix"/>
<feColorMatrix in="SourceAlpha" type="matrix" values="0 0 0 0 0 0 0 0 0 0 0 0 0 0 0 0 0 0 127 0" result="hardAlpha"/>
<feOffset dy="1.33333"/>
<feGaussianBlur stdDeviation="0.666667"/>
<feColorMatrix type="matrix" values="0 0 0 0 0.101961 0 0 0 0 0.137255 0 0 0 0 0.494118 0 0 0 0.15 0"/>
<feBlend mode="multiply" in2="BackgroundImageFix" result="effect1_dropShadow_29_73"/>
<feColorMatrix in="SourceAlpha" type="matrix" values="0 0 0 0 0 0 0 0 0 0 0 0 0 0 0 0 0 0 127 0" result="hardAlpha"/>
<feOffset dy="0.666667"/>
<feColorMatrix type="matrix" values="0 0 0 0 0.101961 0 0 0 0 0.137255 0 0 0 0 0.494118 0 0 0 0.25 0"/>
<feBlend mode="multiply" in2="effect1_dropShadow_29_73" result="effect2_dropShadow_29_73"/>
<feBlend mode="normal" in="SourceGraphic" in2="effect2_dropShadow_29_73" result="shape"/>
<feColorMatrix in="SourceAlpha" type="matrix" values="0 0 0 0 0 0 0 0 0 0 0 0 0 0 0 0 0 0 127 0" result="hardAlpha"/>
<feOffset dy="0.666667"/>
<feComposite in2="hardAlpha" operator="arithmetic" k2="-1" k3="1"/>
<feColorMatrix type="matrix" values="0 0 0 0 1 0 0 0 0 1 0 0 0 0 1 0 0 0 0.25 0"/>
<feBlend mode="normal" in2="shape" result="effect3_innerShadow_29_73"/>
</filter>
<filter id="filter1_ddi_29_73" x="8.02499" y="13.3333" width="15.9499" height="21.1361" filterUnits="userSpaceOnUse" color-interpolation-filters="sRGB">
<feFlood flood-opacity="0" result="BackgroundImageFix"/>
<feColorMatrix in="SourceAlpha" type="matrix" values="0 0 0 0 0 0 0 0 0 0 0 0 0 0 0 0 0 0 127 0" result="hardAlpha"/>
<feOffset dy="1.33333"/>
<feGaussianBlur stdDeviation="0.666667"/>
<feColorMatrix type="matrix" values="0 0 0 0 0.101961 0 0 0 0 0.137255 0 0 0 0 0.494118 0 0 0 0.25 0"/>
<feBlend mode="multiply" in2="BackgroundImageFix" result="effect1_dropShadow_29_73"/>
<feColorMatrix in="SourceAlpha" type="matrix" values="0 0 0 0 0 0 0 0 0 0 0 0 0 0 0 0 0 0 127 0" result="hardAlpha"/>
<feOffset dy="0.666667"/>
<feColorMatrix type="matrix" values="0 0 0 0 0.101961 0 0 0 0 0.137255 0 0 0 0 0.494118 0 0 0 0.2 0"/>
<feBlend mode="multiply" in2="effect1_dropShadow_29_73" result="effect2_dropShadow_29_73"/>
<feBlend mode="normal" in="SourceGraphic" in2="effect2_dropShadow_29_73" result="shape"/>
<feColorMatrix in="SourceAlpha" type="matrix" values="0 0 0 0 0 0 0 0 0 0 0 0 0 0 0 0 0 0 127 0" result="hardAlpha"/>
<feOffset dy="0.666667"/>
<feComposite in2="hardAlpha" operator="arithmetic" k2="-1" k3="1"/>
<feColorMatrix type="matrix" values="0 0 0 0 1 0 0 0 0 1 0 0 0 0 1 0 0 0 0.7 0"/>
<feBlend mode="normal" in2="shape" result="effect3_innerShadow_29_73"/>
</filter>
<linearGradient id="paint0_linear_29_73" x1="16" y1="-0.740741" x2="16" y2="30.5185" gradientUnits="userSpaceOnUse">
<stop stop-color="#0BA7FF"/>
<stop offset="1" stop-color="#097AFF"/>
</linearGradient>
<linearGradient id="paint1_linear_29_73" x1="16" y1="-9.11111" x2="16" y2="37.7778" gradientUnits="userSpaceOnUse">
<stop stop-color="#0BA7FF"/>
<stop offset="1" stop-color="#097AFF"/>
</linearGradient>
<radialGradient id="paint2_radial_29_73" cx="0" cy="0" r="1" gradientUnits="userSpaceOnUse" gradientTransform="translate(16 16) rotate(90) scale(21.7778)">
<stop stop-color="#56CBFF"/>
<stop stop-color="#56CBFF"/>
<stop offset="0.0001" stop-color="#40C4FF" stop-opacity="0.2"/>
<stop offset="1" stop-color="#0042F9" stop-opacity="0.4"/>
</radialGradient>
<clipPath id="clip0_29_73">
<rect width="32" height="32" fill="white"/>
</clipPath>
<clipPath id="clip1_29_73">
<rect width="48" height="48" fill="white" transform="translate(-8 -8)"/>
</clipPath>
</defs>
</svg>

<svg xmlns="http://www.w3.org/2000/svg" width="32" height="32" fill="none" viewBox="0 0 32 32">
  <g clip-path="url(#a)">
    <mask id="c" width="32" height="32" x="0" y="0" maskUnits="userSpaceOnUse" style="mask-type:alpha">
      <path fill="url(#b)" d="M3.366 28.634C.911 26.178 0 22.178 0 16S.91 5.822 3.366 3.366C5.822.911 9.822 0 16 0s10.178.91 12.634 3.366C31.089 5.822 32 9.822 32 16s-.91 10.178-3.366 12.634C26.178 31.089 22.178 32 16 32s-10.178-.91-12.634-3.366Z"/>
    </mask>
    <g mask="url(#c)">
      <g clip-path="url(#d)">
        <path fill="url(#e)" d="M-8-8h48v48H-8z"/>
        <path fill="url(#f)" d="M-8-8h48v48H-8z" opacity=".1" style="mix-blend-mode:hard-light"/>
      </g>
      <g filter="url(#g)">
        <path fill="#BCE5FB" d="M22.258 25.716A11.546 11.546 0 0 0 27.556 16c0-6.382-5.174-11.556-11.556-11.556C9.618 4.444 4.444 9.618 4.444 16c0 4.076 2.11 7.66 5.298 9.716l.612-1.732A9.766 9.766 0 0 1 6.222 16c0-5.4 4.378-9.778 9.778-9.778S25.778 10.6 25.778 16a9.766 9.766 0 0 1-4.132 7.984l.611 1.732Z"/>
        <path fill="#BCE5FB" d="M20.709 21.329a7.111 7.111 0 1 0-9.418 0l.657-1.861a5.333 5.333 0 1 1 8.104 0l.657 1.86Z"/>
      </g>
      <g filter="url(#h)">
        <path fill="#F5F5F5" fill-rule="evenodd" d="M11.6 31.803a25.028 25.028 0 0 1-2.242-.325l4.787-13.562a2.667 2.667 0 1 1 3.71 0l4.787 13.562c-.7.136-1.447.244-2.242.325l-1.618-4.584a11.594 11.594 0 0 1-5.564-.001L11.6 31.803Zm4.4-6.47c-.7 0-1.382-.077-2.037-.223L16 19.338l2.037 5.772a9.365 9.365 0 0 1-2.037.223Z" clip-rule="evenodd"/>
      </g>
    </g>
  </g>
  <defs>
    <linearGradient id="b" x1="16" x2="16" y1="-.741" y2="30.518" gradientUnits="userSpaceOnUse">
      <stop stop-color="#0BA7FF"/>
      <stop offset="1" stop-color="#097AFF"/>
    </linearGradient>
    <linearGradient id="e" x1="16" x2="16" y1="-9.111" y2="37.778" gradientUnits="userSpaceOnUse">
      <stop stop-color="#0BA7FF"/>
      <stop offset="1" stop-color="#097AFF"/>
    </linearGradient>
    <clipPath id="a">
      <path fill="#fff" d="M0 0h32v32H0z"/>
    </clipPath>
    <clipPath id="d">
      <path fill="#fff" d="M-8-8h48v48H-8z"/>
    </clipPath>
    <filter id="g" width="25.778" height="23.939" x="3.111" y="4.444" color-interpolation-filters="sRGB" filterUnits="userSpaceOnUse">
      <feFlood flood-opacity="0" result="BackgroundImageFix"/>
      <feColorMatrix in="SourceAlpha" result="hardAlpha" values="0 0 0 0 0 0 0 0 0 0 0 0 0 0 0 0 0 0 127 0"/>
      <feOffset dy="1.333"/>
      <feGaussianBlur stdDeviation=".667"/>
      <feColorMatrix values="0 0 0 0 0.101961 0 0 0 0 0.137255 0 0 0 0 0.494118 0 0 0 0.15 0"/>
      <feBlend in2="BackgroundImageFix" mode="multiply" result="effect1_dropShadow_29_73"/>
      <feColorMatrix in="SourceAlpha" result="hardAlpha" values="0 0 0 0 0 0 0 0 0 0 0 0 0 0 0 0 0 0 127 0"/>
      <feOffset dy=".667"/>
      <feColorMatrix values="0 0 0 0 0.101961 0 0 0 0 0.137255 0 0 0 0 0.494118 0 0 0 0.25 0"/>
      <feBlend in2="effect1_dropShadow_29_73" mode="multiply" result="effect2_dropShadow_29_73"/>
      <feBlend in="SourceGraphic" in2="effect2_dropShadow_29_73" result="shape"/>
      <feColorMatrix in="SourceAlpha" result="hardAlpha" values="0 0 0 0 0 0 0 0 0 0 0 0 0 0 0 0 0 0 127 0"/>
      <feOffset dy=".667"/>
      <feComposite in2="hardAlpha" k2="-1" k3="1" operator="arithmetic"/>
      <feColorMatrix values="0 0 0 0 1 0 0 0 0 1 0 0 0 0 1 0 0 0 0.25 0"/>
      <feBlend in2="shape" result="effect3_innerShadow_29_73"/>
    </filter>
    <filter id="h" width="15.95" height="21.136" x="8.025" y="13.333" color-interpolation-filters="sRGB" filterUnits="userSpaceOnUse">
      <feFlood flood-opacity="0" result="BackgroundImageFix"/>
      <feColorMatrix in="SourceAlpha" result="hardAlpha" values="0 0 0 0 0 0 0 0 0 0 0 0 0 0 0 0 0 0 127 0"/>
      <feOffset dy="1.333"/>
      <feGaussianBlur stdDeviation=".667"/>
      <feColorMatrix values="0 0 0 0 0.101961 0 0 0 0 0.137255 0 0 0 0 0.494118 0 0 0 0.25 0"/>
      <feBlend in2="BackgroundImageFix" mode="multiply" result="effect1_dropShadow_29_73"/>
      <feColorMatrix in="SourceAlpha" result="hardAlpha" values="0 0 0 0 0 0 0 0 0 0 0 0 0 0 0 0 0 0 127 0"/>
      <feOffset dy=".667"/>
      <feColorMatrix values="0 0 0 0 0.101961 0 0 0 0 0.137255 0 0 0 0 0.494118 0 0 0 0.2 0"/>
      <feBlend in2="effect1_dropShadow_29_73" mode="multiply" result="effect2_dropShadow_29_73"/>
      <feBlend in="SourceGraphic" in2="effect2_dropShadow_29_73" result="shape"/>
      <feColorMatrix in="SourceAlpha" result="hardAlpha" values="0 0 0 0 0 0 0 0 0 0 0 0 0 0 0 0 0 0 127 0"/>
      <feOffset dy=".667"/>
      <feComposite in2="hardAlpha" k2="-1" k3="1" operator="arithmetic"/>
      <feColorMatrix values="0 0 0 0 1 0 0 0 0 1 0 0 0 0 1 0 0 0 0.7 0"/>
      <feBlend in2="shape" result="effect3_innerShadow_29_73"/>
    </filter>
    <radialGradient id="f" cx="0" cy="0" r="1" gradientTransform="rotate(90 0 16) scale(21.7778)" gradientUnits="userSpaceOnUse">
      <stop stop-color="#56CBFF"/>
      <stop stop-color="#56CBFF"/>
      <stop offset="0" stop-color="#40C4FF" stop-opacity=".2"/>
      <stop offset="1" stop-color="#0042F9" stop-opacity=".4"/>
    </radialGradient>
  </defs>
</svg>
